_assets/img/i--clip.svg

<?xml version="1.0" encoding="UTF-8"?>
<svg width="31px" height="31px" viewBox="0 0 31 31" version="1.1" xmlns="http://www.w3.org/2000/svg" xmlns:xlink="http://www.w3.org/1999/xlink">
    <!-- Generator: Sketch 58 (84663) - https://sketch.com -->
    <title>i--clip</title>
    <desc>Created with Sketch.</desc>
    <defs>
        <polygon id="path-1" points="0 0.000145454545 30.4040727 0.000145454545 30.4040727 30.4205091 0 30.4205091"></polygon>
    </defs>
    <g id="Markenportal" stroke="none" stroke-width="1" fill="none" fill-rule="evenodd">
        <g id="Artboard-Copy-6" transform="translate(-1000.000000, -8973.000000)">
            <g id="i--clip" transform="translate(994.000000, 8967.000000)">
                <rect id="Rectangle" x="0" y="0" width="44" height="44"></rect>
                <g id="1-Atoms-/-1.5-Icons-/-20-Mailbox_Appendix" transform="translate(6.000000, 6.000000)">
                    <g id="Group-3">
                        <mask id="mask-2" fill="white">
                            <use xlink:href="#path-1"></use>
                        </mask>
                        <g id="Clip-2"></g>
                        <path d="M20.5597091,30.4205091 C18.0389818,30.4205091 15.5168,29.4605091 13.5968,27.5405091 L2.0288,15.9710545 C-0.676654545,13.2670545 -0.676654545,8.86705455 2.0288,6.1616 C4.7328,3.4576 9.13425455,3.4576 11.8382545,6.1616 L21.6928,16.0176 C22.4535273,16.7768727 22.8724364,17.7877818 22.8724364,18.8641455 C22.8724364,19.9390545 22.4535273,20.9499636 21.6928,21.7106909 C20.1728,23.2306909 17.5197091,23.2306909 15.9997091,21.7106909 L7.89934545,13.6088727 L9.95607273,11.5521455 L18.0564364,19.6539636 C18.4913455,20.0874182 19.2011636,20.0874182 19.6360727,19.6539636 C20.0709818,19.2176 20.0709818,18.5106909 19.6360727,18.0743273 L9.78152727,8.21832727 C8.21061818,6.64741818 5.65643636,6.64741818 4.08552727,8.21832727 C2.51607273,9.78923636 2.51607273,12.3434182 4.08552727,13.9143273 L15.6535273,25.4823273 C18.3560727,28.1877818 22.7618909,28.1892364 25.4673455,25.4823273 C28.1713455,22.7783273 28.1713455,18.3768727 25.4673455,15.6699636 L11.8542545,2.05687273 L13.9109818,0.000145454545 L27.5240727,13.6132364 C31.3640727,17.4546909 31.3640727,23.7019636 27.5240727,27.5405091 C25.6040727,29.4605091 23.0818909,30.4205091 20.5597091,30.4205091" id="Fill-1" fill="#35444C" mask="url(#mask-2)"></path>
                    </g>
                </g>
            </g>
        </g>
    </g>
</svg>

<svg width="31" height="31" xmlns="http://www.w3.org/2000/svg"><g fill="none" fill-rule="evenodd"><path d="M-6-6h44v44H-6z"/><path d="M20.56 30.42c-2.521 0-5.043-.96-6.963-2.88L2.029 15.972c-2.706-2.704-2.706-7.104 0-9.81a6.945 6.945 0 0 1 9.81 0l9.854 9.857c.76.759 1.18 1.77 1.18 2.846a4 4 0 0 1-1.18 2.847c-1.52 1.52-4.173 1.52-5.693 0l-8.1-8.102 2.056-2.057 8.1 8.102a1.122 1.122 0 0 0 1.58 0 1.12 1.12 0 0 0 0-1.58L9.782 8.218a4.031 4.031 0 0 0-5.696 0 4.034 4.034 0 0 0 0 5.696l11.568 11.568c2.702 2.706 7.108 2.707 9.813 0 2.704-2.704 2.704-7.105 0-9.812L11.854 2.057 13.911 0l13.613 13.613c3.84 3.842 3.84 10.089 0 13.928a9.818 9.818 0 0 1-6.964 2.88" fill="#35444C"/></g></svg>
